X: 17643
T: Hole In The Hedge, The
R: jig
M: 6/8
K: Dmajor
|:"D"D2 F FEF|AFE F2 E|"F#m"D2 F FEF|AFD E2 F|
"G"D2 F FEF|AFA ABc|"A"d2 d BdB|1 AFD E3:|2 AFD EFA||
|:"D"d2 f edB|AFA ABc|"F#m"d2 f edB|AFD E2 F|
"G"d2 f edB|AFA ABc|"A"dcd BdB|1 AFD EFA:|2 AFD E3||

